world_stage/static/flags/ALA/square.svg

<svg height="1200" viewBox="0 0 1200.0001 1200" width="1200" xmlns="http://www.w3.org/2000/svg"><path d="m0 1200h1200v-1200h-1200z" fill="#0053a5" stroke-width="1.1536"/><path d="m253.84713 1200h346.15286v-1199.999995h-346.15286z" fill="#ffce00" stroke-width="1.41287"/><path d="m0 776.47018h1200v-352.94118h-1200z" fill="#ffce00" stroke-width="1.1536"/><g fill="#d21034"><path d="m357.69143 1200h138.46284v-1199.999995h-138.46284z" stroke-width="1.41287"/><path d="m0 670.58847h1200v-141.17647h-1200z" stroke-width="1.1536"/></g></svg>

<?xml version="1.0" encoding="UTF-8" standalone="no"?>
<svg
   height="1200"
   viewBox="0 0 1200.0001 1200"
   width="1200"
   version="1.1"
   id="svg6"
   sodipodi:docname="rect copy.svg"
   inkscape:version="1.4 (e7c3feb1, 2024-10-09)"
   xmlns:inkscape="http://www.inkscape.org/namespaces/inkscape"
   xmlns:sodipodi="http://sodipodi.sourceforge.net/DTD/sodipodi-0.dtd"
   xmlns="http://www.w3.org/2000/svg"
   xmlns:svg="http://www.w3.org/2000/svg">
  <defs
     id="defs6" />
  <sodipodi:namedview
     id="namedview6"
     pagecolor="#ffffff"
     bordercolor="#000000"
     borderopacity="0.25"
     inkscape:showpageshadow="2"
     inkscape:pageopacity="0.0"
     inkscape:pagecheckerboard="0"
     inkscape:deskcolor="#d1d1d1"
     inkscape:current-layer="svg6" />
  <path
     d="M 0,1200 H 1200 V 0 H 0 Z"
     fill="#0053a5"
     id="path1"
     style="stroke-width:1.1536" />
  <path
     d="M 253.84713,1200 H 599.99999 V 5.0000001e-6 H 253.84713 Z"
     fill="#ffce00"
     id="path2"
     style="stroke-width:1.41287" />
  <path
     d="M 0,776.47018 H 1200 V 423.529 H 0 Z"
     fill="#ffce00"
     id="path3"
     style="stroke-width:1.1536" />
  <path
     d="M 357.69143,1200 H 496.15427 V 5.0000001e-6 H 357.69143 Z"
     id="path4"
     style="fill:#d21034;stroke-width:1.41287" />
  <path
     d="M 0,670.58847 H 1200 V 529.412 H 0 Z"
     id="path5"
     style="fill:#d21034;stroke-width:1.1536" />
</svg>
